Papirus/64x64/apps/com.github.nick92.tranqil.svg

<svg xmlns="http://www.w3.org/2000/svg" width="64" height="64" version="1.1">
 <g transform="translate(0,-988.3622)">
  <circle style="opacity:.32" cx="32" cy="1021.362" r="28"/>
  <path style="fill:#834366" d="m60 1020.3622c0 4.0306-0.851624 7.8622-2.384748 11.3248-4.348984 9.8224-15.363826 12.3412-26.797242 12.3412-15.463975 0-24.454035-7.5454-24.454035-23.0094 0-2.5188-2.0313462-5.6168-1.4076116-7.9388 3.205379-11.9332 14.09863-20.7178 27.043635-20.7178 15.463974 0 28.000002 12.536 28.000002 28z"/>
  <path style="opacity:.1;fill:#ffffff" transform="translate(0,988.3622)" d="m32 4c-12.945005 0-23.83759 8.78555-27.042969 20.71875-0.1161724 0.43242-0.1120129 0.898745-0.0703122 1.376953 0.0180024-0.127074 0.0373236-0.254161 0.0703124-0.376953 3.2053791-11.9332 14.097964-20.71875 27.042969-20.71875 15.240026 0 27.626575 12.177543 27.982422 27.332031 0.006417-0.110506 0.017578-0.219933 0.017578-0.332031 0-15.464-12.536026-28-28-28z"/>
  <circle style="opacity:.2" class="st11" cx="29" cy="1022.362" r="17"/>
  <circle style="fill:#ff87a3" class="st11" cx="29" cy="1021.362" r="17"/>
  <path style="opacity:.1;fill:#ffffff" transform="translate(0,988.3622)" d="m29 16a17 17 0 0 0 -17 17 17 17 0 0 0 0.017578 0.494141 17 17 0 0 1 16.982422 -16.494141 17 17 0 0 1 16.974609 16.488281 17 17 0 0 0 0.025391 -0.488281 17 17 0 0 0 -17 -17z"/>
  <path style="fill:#db4b73" d="m18.890625 1030.3622 8.753907 11.9102s4.56224-0.2392 9.80078 1.8046c4.292828-1.2318 10.403228-0.2507 13.585938-3.2109 0.1682-0.1565 0.36781-0.3327 0.542968-0.4922a28 28 0 0 0 6.54297 -10.0117h-39.226563z"/>
  <path style="fill:#3a2e31" d="m5.3261719 1011.8802c-0.8754488 2.7424-1.3227628 5.6034-1.326172 8.482 0.0000012 15.464 12.536029 28 28.000002 28 7.195594 0 14.113478-2.778 19.31836-7.7464-3.183222-0.166-5.497228-0.2536-11.541796-0.2536-2.844446 0-10.35508 1.9118-13.15508-3.4214-2.17778-4.2224-6.131728-7.602-9.376172-8.4466-2.755556-0.711-3.512933-3.3762-3.735157-6.5762-0.266666-3.3778-2.977995-3.466-4.7113287-5.6436-1.3534756-1.7672-2.1351106-3.6812-3.4726564-4.3942z"/>
 </g>
</svg>

<?xml version="1.0" encoding="UTF-8" standalone="no"?>
<svg
   id="_图层_1"
   version="1.1"
   viewBox="0 0 64 64" width="64" height="64"
   sodipodi:docname="com.github.nick92.tranqil.svg"
   xml:space="preserve"
   inkscape:version="1.4 (e7c3feb100, 2024-10-09)"
   xmlns:inkscape="http://www.inkscape.org/namespaces/inkscape"
   xmlns:sodipodi="http://sodipodi.sourceforge.net/DTD/sodipodi-0.dtd"
   xmlns="http://www.w3.org/2000/svg"
   xmlns:svg="http://www.w3.org/2000/svg"><sodipodi:namedview
     id="namedview26"
     pagecolor="#505050"
     bordercolor="#eeeeee"
     borderopacity="1"
     inkscape:showpageshadow="0"
     inkscape:pageopacity="0"
     inkscape:pagecheckerboard="0"
     inkscape:deskcolor="#505050"
     inkscape:zoom="10.6875"
     inkscape:cx="32"
     inkscape:cy="26.666667"
     inkscape:window-width="1920"
     inkscape:window-height="939"
     inkscape:window-x="0"
     inkscape:window-y="34"
     inkscape:window-maximized="1"
     inkscape:current-layer="_图层_1" /><!-- Generator: Adobe Illustrator 29.0.1, SVG Export Plug-In . SVG Version: 2.1.0 Build 192)  --><defs
     id="defs6"><style
       id="style1">
      .st0 {
        fill-opacity: .5;
      }

      .st0, .st1, .st2, .st3, .st4, .st5, .st6, .st7 {
        fill: #fff;
      }

      .st8 {
        fill: #133c9a;
      }

      .st2, .st9 {
        display: none;
      }

      .st3 {
        fill-opacity: .2;
      }

      .st4 {
        fill-opacity: .9;
      }

      .st10 {
        fill: #3370ff;
      }

      .st11 {
        fill: url(#_未命名的渐变_3);
      }

      .st12 {
        fill: url(#_未命名的渐变);
      }

      .st5 {
        fill-opacity: .3;
      }

      .st6 {
        fill-opacity: 0;
      }

      .st7 {
        fill-opacity: .7;
      }

      .st13 {
        fill: #00d6b9;
      }

      .st14 {
        fill: url(#_未命名的渐变_2);
      }
    </style><radialGradient
       id="_未命名的渐变"
       data-name="未命名的渐变"
       cx="123.9"
       cy="-40.2"
       fx="123.9"
       fy="-40.2"
       r="59.4"
       gradientTransform="translate(-26.8 25.5) scale(.6 -.7)"
       gradientUnits="userSpaceOnUse"><stop
         offset="0"
         stop-color="#db202e"
         id="stop1" /><stop
         offset="1"
         stop-color="#e01b24"
         id="stop2" /></radialGradient><radialGradient
       id="_未命名的渐变_2"
       data-name="未命名的渐变 2"
       cx="67.6"
       cy="26.8"
       fx="67.6"
       fy="26.8"
       r="105.2"
       gradientTransform="translate(-26.6 25.3) scale(.6 -.7)"
       gradientUnits="userSpaceOnUse"><stop
         offset="0"
         stop-color="#ffb648"
         id="stop3" /><stop
         offset="1"
         stop-color="#ff7800"
         stop-opacity="0"
         id="stop4" /></radialGradient><radialGradient
       id="_未命名的渐变_3"
       data-name="未命名的渐变 3"
       cx="61.7"
       cy="18.6"
       fx="61.7"
       fy="18.6"
       r="68"
       gradientTransform="matrix(0.6,0,0,-0.7,-26.8,25.8)"
       gradientUnits="userSpaceOnUse"><stop
         offset="0"
         stop-color="#c64600"
         id="stop5" /><stop
         offset="1"
         stop-color="#a51d2d"
         id="stop6" /></radialGradient></defs><path
     class="st1"
     d="M47.5,64.1H13.8c-7.6,0-13.8-6.3-13.8-13.8V13.7C0,6.2,6.2,0,13.7,0h36.6c7.5,0,13.7,6.2,13.7,13.7v36.6c0,7.5-6.2,13.7-13.7,13.7h-2.9.1Z"
     id="path6"
     style="fill:#f2f2f2;fill-opacity:1" /><g
     transform="matrix(0.88805353,0,0,0.87196019,3.72264,-856.97561)"
     id="g5"><circle
       style="opacity:0.32"
       cx="32"
       cy="1021.362"
       r="28"
       id="circle1" /><path
       style="fill:#834366"
       d="m 60,1020.3622 c 0,4.0306 -0.851624,7.8622 -2.384748,11.3248 -4.348984,9.8224 -15.363826,12.3412 -26.797242,12.3412 -15.463975,0 -24.454035,-7.5454 -24.454035,-23.0094 0,-2.5188 -2.0313462,-5.6168 -1.4076116,-7.9388 3.205379,-11.9332 14.0986296,-20.7178 27.0436346,-20.7178 15.463974,0 28.000002,12.536 28.000002,28 z"
       id="path1" /><path
       style="opacity:0.1;fill:#ffffff"
       transform="translate(0,988.3622)"
       d="M 32,4 C 19.054995,4 8.16241,12.78555 4.957031,24.71875 4.8408586,25.15117 4.8450181,25.617495 4.8867188,26.095703 4.9047212,25.968629 4.9240424,25.841542 4.9570312,25.71875 8.1624103,13.78555 19.054995,5 32,5 47.240026,5 59.626575,17.177543 59.982422,32.332031 59.988839,32.221525 60,32.112098 60,32 60,16.536 47.463974,4 32,4 Z"
       id="path2-6" /><circle
       style="opacity:0.2;fill:url(#_%E6%9C%AA%E5%91%BD%E5%90%8D%E7%9A%84%E6%B8%90%E5%8F%98_3)"
       class="st11"
       cx="29"
       cy="1022.362"
       r="17"
       id="circle2" /><circle
       style="fill:#ff87a3"
       class="st11"
       cx="29"
       cy="1021.362"
       r="17"
       id="circle3" /><path
       style="opacity:0.1;fill:#ffffff"
       transform="translate(0,988.3622)"
       d="M 29,16 A 17,17 0 0 0 12,33 17,17 0 0 0 12.017578,33.494141 17,17 0 0 1 29,17 17,17 0 0 1 45.974609,33.488281 17,17 0 0 0 46,33 17,17 0 0 0 29,16 Z"
       id="path3" /><path
       style="fill:#db4b73"
       d="m 18.890625,1030.3622 8.753907,11.9102 c 0,0 4.56224,-0.2392 9.80078,1.8046 4.292828,-1.2318 10.403228,-0.2507 13.585938,-3.2109 0.1682,-0.1565 0.36781,-0.3327 0.542968,-0.4922 a 28,28 0 0 0 6.54297,-10.0117 z"
       id="path4" /><path
       style="fill:#3a2e31"
       d="m 5.3261719,1011.8802 c -0.8754488,2.7424 -1.3227628,5.6034 -1.326172,8.482 1.2e-6,15.464 12.5360291,28 28.0000021,28 7.195594,0 14.113478,-2.778 19.31836,-7.7464 -3.183222,-0.166 -5.497228,-0.2536 -11.541796,-0.2536 -2.844446,0 -10.35508,1.9118 -13.15508,-3.4214 -2.17778,-4.2224 -6.131728,-7.602 -9.376172,-8.4466 -2.755556,-0.711 -3.512933,-3.3762 -3.735157,-6.5762 -0.266666,-3.3778 -2.977995,-3.466 -4.7113288,-5.6436 -1.3534756,-1.7672 -2.1351106,-3.6812 -3.4726563,-4.3942 z"
       id="path5" /></g></svg>
